X:6
T:Kreupolka  CGF 5- chords (align)
M:2/4
L:1/16
K:Cmaj%%MIDI gchordon
"C"c2cB A2G2 | E4C4 | c2cB A2G2 | "G7"F4D4 | d2dc B2A2 | c2B^AB4 | "F"B2AGA4 | "C"A2G^FG4 | \
c2cB A2G2 |
E4C4 | c2cB A2G2 | "G7"F4D4 | d2dc B2A2 | "C"c2G^F !>!G4 | "G7"G2GG A2B2 | "C"c4!>!c4 || [K:Gmaj] \
"G"D2E2 F3G | "D7"^G2A2 !>!A4 | E2F2 G2"T"A2 |
"G"^A2B2 !>!B4 | "D7"d2dD !>!A4 | "G"B2BD G4 | "D"F2FG F2C2 | "G"E2D2B,4 | \
D2E2 F3G | "D7"^G2A2 A4 | E2F2 G2A2 | "G"^A2B2 !>!B4 | "D7"d2dD "T"A4 |
"G"B2BDG4 | "D7"F2A2 GFEF | "G"G2G2 G2"_> Teil A"z2 |] [K:Fmaj] \
"F"C2CA C2A2 | "Gm"B4D4 | "C7"E2EB E2B2 | "F"A4F4 | A3G G2F2 | "C7"E2B2 D3"T"F |
E2G2 D3E | \
"F"D2^C2=C4 | C2CA C2A2 | "Gm"B4D4 | "C7"E2EB E2B2 | "F"A4F4 | A3G G2F2 | "C7"E2B2 D3F | E2G2 D2E2 | "F"F2A2 F2z2 |] 

